!!!!SEGMENT: pl-kk--kk-i-277--001-007_anonim--rorate-caeli-sanctus.krn
!!!cenid: 16xx:1079
!!!COM: Anonim
!!!COM-rismID: pe30004985
!!!CDT:
!!!CNT:
!!!OPR: Rorate caeli
!!!OTL: Sanctus
!!!OMV: 007
!!!PDT:
!!!AGN: Sacred
!!!SMS-siglum: PL-Kk
!!!SMS-shelfmark: Kk.I.277
!!!SMS-shelfwork: 001-007 M
!!!SMS-variant:
!!!SMS-altvar:
!!!NIFC-rismSourceID: 1001147186
!!!NIFC-islandoraID: pl-kk:4889
!!!URL-pdf-islandora: https://repozytorium.nifc.pl/islandora/object/pl-kk%3A4889/datastream/PDF/view
!!!URL-scan: https://polish.musicsources.pl/pl/lokalizacje/galeria/rekopisy/5895 @EN{Scan on Polish Music Herritage in Open Access Website} @PL{Skany w portalu Dziedzictwo Muzyki Polskiej w otwartym dostępie}
!!!ONB-nifc: UWAGA: Rorate 1mi officii od str. 1. Części: 1. Rorate caeli (Rorate caeli + Benedixisti + Gloria patri), 2. Kyrie, 3. Tollite portas, 4. Alleluia, 5. Mittit ad virginem, 6. Ave Maria, 7. Sanctus, 8. Agnus Dei, 9. Ecce virgo, 10. Deo gratias
!!!AIN: 1 tenor
!!!key:
**kern	**text
*Itenor	*
*I"[Tenore]	*
*I'[T]	*
*clefC4	*
*k[]	*
*C:	*
*M2/1	*
*met(C)	*
=1-	=1-
*lig	*
!LO:TX:a:t=P:problem=inicjał S przed kluczem	!
1c	San-
1d	.
*Xlig	*
=2-	=2-
*lig	*
1c	.
1A	.
*Xlig	*
=3-	=3-
1F	.
*lig	*
1G	.
=4-	=4-
1A	.
*Xlig	*
*lig	*
1G	.
=5-	=5-
1E	.
*Xlig	*
0F;<	-ct(us)
=6||	=6||
.	.
1B	San-
=7-	=7-
*lig	*
1A	.
1G	.
*Xlig	*
=8-	=8-
1A	.
!LO:LB:g=original	!
0G	.
=9-	=9-
.	.
0F;<	-ct(us)
=10||	=10||
.	.
*lig	*
1F	San-
=11-	=11-
1A	.
*Xlig	*
*lig	*
1c	.
=12-	=12-
1d	.
*Xlig	*
1e	.
=13-	=13-
*lig	*
1d	.
1B	.
*Xlig	*
=14-	=14-
1c	-ct(us)
1f	Do-
=15-	=15-
1d	-mi-
1f	-n(us)
=16-	=16-
*lig	*
1e	De-
1f	.
*Xlig	*
=17-	=17-
*lig	*
1e	.
1d	.
*Xlig	*
=18-	=18-
*lig	*
1c	.
1d	.
*Xlig	*
=19-	=19-
1c	-us
*lig	*
1A	Sab-
=20-	=20-
1F	.
*Xlig	*
*lig	*
1B	.
=21-	=21-
*custos:G	*
1A	.
!LO:LB:g=original	!
*Xlig	*
*lig	*
1G	.
=22-	=22-
1A	.
*Xlig	*
0G	-ba-
=23-	=23-
.	.
0F#X;<	-oth
=24||	=24||
!LO:TX:t=P:problem=inicjał P przed 1A	!
.	.
1A	Ple-
=25-	=25-
1G	-ni
1F	ſunt
=26-	=26-
*lig	*
1G	cae-
1A	.
*Xlig	*
=27-	=27-
1A	-li
1c	et
=28-	=28-
*lig	*
1d	ter-
1e	.
*Xlig	*
=29-	=29-
*lig	*
1d	.
1B	.
*Xlig	*
=30-	=30-
1c	-ra
0f	glo-
=31-	=31-
.	.
1c	.
=32-	=32-
*lig	*
1c	-ri-
1A	.
*Xlig	*
=33-	=33-
1F	-a
*lig	*
1B	tu-
=34-	=34-
1A	.
*Xlig	*
*lig	*
!LO:LB:g=original	!
1G	.
=35-	=35-
1A	.
*Xlig	*
0G	.
=36-	=36-
.	.
0F;<	-a
=37||	=37|
.	.
!LO:TX:a:t=P:problem=inicjał O przed 1A	!
1A	O-
=38-	=38-
*lig	*
1c	.
1d	.
*Xlig	*
=39-	=39-
1e	.
*lig	*
1d	-ſan-
=40-	=40-
1B	.
*Xlig	*
1c	-na
=41-	=41-
1f	in
*lig	*
1f	ex-
=42-	=42-
1c	.
*Xlig	*
*lig	*
1A	.
=43-	=43-
1F	.
*Xlig	*
*lig	*
1B	-cel-
=44-	=44-
1A	.
*Xlig	*
*lig	*
1G	.
=45-	=45-
1A	.
*Xlig	*
0G	.
=46-	=46-
.	.
0F;;l	-ſiſ
=47||	=47||
.	.
1ryy	.
!LO:LB:g=original	!
=48-	=48-
!LO:TX:a:t=P:problem=inicjał B przed 1f	!
1f	Be-
*lig	*
1f	-ne-
=49-	=49-
1e	.
*Xlig	*
*lig	*
1d	.
=50-	=50-
1f	.
*Xlig	*
1c	-di-
=51-	=51-
1c	-ctus
*lig	*
1d	.
=52-	=52-
1e	.
*Xlig	*
1f	qui
=53-	=53-
1f	ve-
*lig	*
1f	.
=54-	=54-
1c	.
1c	.
=55-	=55-
1A	.
1F	.
*Xlig	*
=56-	=56-
*lig	*
1G	.
1A	.
*Xlig	*
=57-	=57-
*lig	*
1B	.
1A	.
*Xlig	*
=58-	=58-
*lig	*
1c	.
1d	.
*Xlig	*
=59-	=59-
1e	.
*lig	*
1d	.
=60-	=60-
*custos:c	*
1B	.
!LO:LB:g=original	!
*Xlig	*
1c	-nit
=61-	=61-
1f	in
*lig	*
1f	No-
=62-	=62-
1c	.
*Xlig	*
*lig	*
1A	-mi-
=63-	=63-
1F	-ne
*Xlig	*
1G	Do-
=64-	=64-
*lig	*
1B	.
1A	.
*Xlig	*
=65-	=65-
*lig	*
1G	.
1A	.
*Xlig	*
=66-	=66-
0G	-mi-
=67-	=67-
0F;;	-ni
=68||	=68||
!LO:TX:a:t=P:problem=inicjał O przed 1A	!
1A	O-
*lig	*
1c	-ſan-
=69-	=69-
1d	.
*Xlig	*
1e	.
=70-	=70-
*lig	*
1d	.
1B	.
*Xlig	*
=71-	=71-
1c	-na
1f	in
=72-	=72-
*lig	*
1f	ex-
1c	.
*Xlig	*
=73-	=73-
*lig	*
1A	.
1F	.
*Xlig	*
=74-	=74-
*lig	*
1B	-cel-
1A	.
!LO:LB:g=original	!
*Xlig	*
=75-	=75-
*lig	*
1G	.
1A	.
*Xlig	*
=76-	=76-
0G	.
=77-	=77-
0F;;l	-ſis.
=-	=-
*-	*-
!!!RDF**kern: l = terminal long
!!!RDF**kern: > = above
!!!RDF**kern: < = below
!!!EED: Antoni Szymański
!!!EEV: 2021-03-28
!!!ENC: Tomasz Grochalski
!!!END: 2021-03-14
